fs/question_circle_48_filled.svg

<svg viewBox="0 0 48 48" fill="none" xmlns="http://www.w3.org/2000/svg" height="1em" width="1em">
  <path d="M24 4C35.0457 4 44 12.9543 44 24C44 35.0457 35.0457 44 24 44C12.9543 44 4 35.0457 4 24C4 12.9543 12.9543 4 24 4ZM24.25 32C23.4216 32 22.75 32.6716 22.75 33.5C22.75 34.3284 23.4216 35 24.25 35C25.0784 35 25.75 34.3284 25.75 33.5C25.75 32.6716 25.0784 32 24.25 32ZM24.25 13C20.8864 13 18 15.8846 18 19.25C18 19.9404 18.5596 20.5 19.25 20.5C19.8541 20.5 20.358 20.0715 20.4746 19.5019L20.4935 19.3778L20.5055 19.0587C20.6142 17.1536 22.3307 15.5 24.25 15.5C26.2346 15.5 28 17.2634 28 19.25C28.0011 20.437 27.5794 21.29 26.3804 22.6455L26.1734 22.8762L25.1461 23.9739C23.5147 25.7467 22.8251 26.9703 22.8379 28.7589C22.8428 29.4493 23.4065 30.0049 24.0968 30.0001C24.6577 29.996 25.1297 29.6231 25.2843 29.1132L25.3143 28.9932L25.3323 28.8689L25.3379 28.7411L25.3409 28.5793C25.377 27.7786 25.7351 27.0936 26.6221 26.0726L26.8066 25.8638L27.8216 24.7772C29.7314 22.7192 30.502 21.3691 30.5 19.2488C30.5 15.8821 27.6147 13 24.25 13Z" fill="#212121"/>
</svg>

<svg viewBox="0 0 48 48" fill="none" xmlns="http://www.w3.org/2000/svg" height="1em" width="1em">
  <path d="M24 4c11.046 0 20 8.954 20 20s-8.954 20-20 20S4 35.046 4 24 12.954 4 24 4Zm.25 28a1.5 1.5 0 1 0 0 3 1.5 1.5 0 0 0 0-3Zm0-19C20.886 13 18 15.885 18 19.25a1.25 1.25 0 0 0 2.475.252l.018-.124.013-.32c.108-1.904 1.825-3.558 3.744-3.558 1.985 0 3.75 1.763 3.75 3.75.001 1.187-.42 2.04-1.62 3.395l-.207.231-1.027 1.098c-1.631 1.773-2.32 2.996-2.308 4.785a1.25 1.25 0 0 0 2.446.354l.03-.12.018-.124.006-.128.003-.162c.036-.8.394-1.485 1.281-2.506l.185-.21 1.015-1.086c1.91-2.058 2.68-3.408 2.678-5.528 0-3.367-2.885-6.249-6.25-6.249Z" fill="#212121"/>
</svg>
